images/google-icon.svg

<svg width="20" height="20" viewBox="0 0 20 20" fill="none" xmlns="http://www.w3.org/2000/svg">
<path d="M19.8055 8.0415H19V8H10V12H15.6515C14.827 14.3285 12.6115 16 10 16C6.6865 16 4 13.3135 4 10C4 6.6865 6.6865 4 10 4C11.5295 4 12.921 4.577 13.9805 5.5195L16.809 2.691C15.023 1.0265 12.634 0 10 0C4.4775 0 0 4.4775 0 10C0 15.5225 4.4775 20 10 20C15.5225 20 20 15.5225 20 10C20 9.3295 19.931 8.675 19.8055 8.0415Z" fill="#FFC107"/>
<path d="M1.15332 5.3455L4.43882 7.755C5.32782 5.554 7.48082 4 10.0003 4C11.5298 4 12.9213 4.577 13.9808 5.5195L16.8093 2.691C15.0233 1.0265 12.6343 0 10.0003 0C6.15932 0 2.82832 2.1685 1.15332 5.3455Z" fill="#FF3D00"/>
<path d="M10.0002 20C12.5832 20 14.9302 19.0115 16.7047 17.404L13.6097 14.785C12.5719 15.5742 11.3039 16.001 10.0002 16C7.39916 16 5.19066 14.3415 4.35866 12.027L1.09766 14.5395C2.75266 17.778 6.11366 20 10.0002 20Z" fill="#4CAF50"/>
<path d="M19.8055 8.0415H19V8H10V12H15.6515C15.2571 13.1082 14.5467 14.0766 13.608 14.7855L13.6095 14.7845L16.7045 17.4035C16.4855 17.6025 20 15 20 10C20 9.3295 19.931 8.675 19.8055 8.0415Z" fill="#1976D2"/>
</svg>

<svg width="20" height="20" fill="none" xmlns="http://www.w3.org/2000/svg"><path d="M19.805 8.041H19V8h-9v4h5.652A5.998 5.998 0 0 1 4 10a6 6 0 0 1 6-6c1.53 0 2.921.577 3.98 1.52l2.83-2.83A9.954 9.954 0 0 0 10 0C4.478 0 0 4.478 0 10c0 5.523 4.478 10 10 10 5.523 0 10-4.477 10-10 0-.67-.069-1.325-.195-1.959Z" fill="#FFC107"/><path d="M1.153 5.346 4.44 7.755A5.997 5.997 0 0 1 10 4c1.53 0 2.921.577 3.98 1.52l2.83-2.829A9.954 9.954 0 0 0 10 0a9.994 9.994 0 0 0-8.847 5.346Z" fill="#FF3D00"/><path d="M10 20c2.583 0 4.93-.988 6.705-2.596l-3.095-2.619A5.955 5.955 0 0 1 10 16a5.997 5.997 0 0 1-5.641-3.973L1.098 14.54C2.753 17.777 6.114 20 10 20Z" fill="#4CAF50"/><path d="M19.805 8.041H19V8h-9v4h5.652a6.02 6.02 0 0 1-2.044 2.786l.002-.002 3.095 2.62C16.485 17.602 20 15 20 10c0-.67-.069-1.325-.195-1.959Z" fill="#1976D2"/></svg>
